X:1
T:Title
%%score { ( 1 3 ) | ( 2 4 ) }
L:1/8
Q:1/4=100
M:4/4
K:D
V:1 treble nm="Grand Piano"
V:3 treble 
V:2 bass 
V:4 bass 
V:1
 [DA]2 [A,DF]2 [G,DE]2 [A,CF]2 | [F,D]3 [A,CE][K:treble] F2 GA | B2 d2 c2 A2 | B8 | %4
w: Charles~Vincent * * *||||
 [A,EA]2 [A,CE]2 [A,DF]2 [Fd]2 | [=Fc]2 ^G2 A2 [Ac][Ad] | [Ae]2 [^Gc]2 [FB]2 [Gc]2 | A8 | %8
w: ||||
 B4 [Gc]4 | [Fd]2 c[EB] [FA]2 B2 | A2 F2 D2 [CE]2 | [DF]8 |] %12
w: ||||
V:2
 [D,F,]2 D,2 A,,2 A,,2 | B,,3 A,, [D,A,D]2 [E,A,D][F,A,D] | [G,D]2 [B,D]2 [A,D]2 [F,D]2 | %3
 [G,D]2 [F,A,]2 E,2 D,2 | C,2 A,,2 D,2 [B,,A,]2 | [C,^G,]2 [=F,C]2 [^F,CF]2 [F,A,][F,B,] | %6
 [E,C]2 [E,E]2 [E,D]2 [E,E]2 | D4 z4 | [G,DG]4 [E,A,]4 | B,2 z2 z4 | D4 z4 | [D,A,]8 |] %12
V:3
 x8 | x4[K:treble] x4 | x8 | z2 ^D2 [G,E]4 | x8 | x8 | x8 | z4 C4 | x8 | x8 | x8 | x8 |] %12
V:4
 x8 | x8 | x8 | x8 | x8 | x8 | x8 | [A,E]8 | x8 | B,,2- [B,,A,D][C,G,] [D,F,]2 [G,D]2 | %10
 [F,A,]2 [D,B,]2 [B,,F,]2 [A,,A,]2 | x8 |] %12

